Catalina-light/actions/22/labplot-xy-equation-curve.svg

<svg xmlns="http://www.w3.org/2000/svg" viewBox="0 0 22 22">
  <defs id="defs3051">
    <style type="text/css" id="current-color-scheme">
      .ColorScheme-Text {
        color:#4d4d4d;
      }
      </style>
  </defs>
 <path 
     style="fill:currentColor;fill-opacity:1;stroke:none" 
     d="M 3 2 L 3 10.294922 L 3 10.5 L 3 11.5 L 3 11.705078 L 3 20 L 4 20 L 4 12.291016 C 4.1129846 12.37596 4.2278285 12.44804 4.3398438 12.546875 C 5.0832238 13.202805 5.7874731 14.113252 6.4707031 15.044922 C 7.1539331 15.976602 7.8144534 16.927778 8.5273438 17.673828 C 9.2402335 18.419878 10.04166 19 11 19 C 11.95833 19 12.757813 18.419878 13.470703 17.673828 C 14.183593 16.927778 14.844114 15.976602 15.527344 15.044922 C 16.210574 14.113252 16.914813 13.202805 17.658203 12.546875 C 18.401583 11.890955 19.15625 11.5 20 11.5 L 20 10.5 C 19.15625 10.5 18.401583 10.109045 17.658203 9.453125 C 16.914813 8.797195 16.210574 7.8867481 15.527344 6.9550781 C 14.844114 6.0233981 14.183593 5.0722219 13.470703 4.3261719 C 12.757813 3.5801219 11.95833 3 11 3 C 10.04166 3 9.2402335 3.5801219 8.5273438 4.3261719 C 7.8144534 5.0722219 7.1539331 6.0233981 6.4707031 6.9550781 C 5.7874731 7.8867481 5.0832237 8.797195 4.3398438 9.453125 C 4.2273158 9.5524125 4.1133904 9.6256915 4 9.7109375 L 4 2 L 3 2 z M 11 4 C 11.54166 4 12.115234 4.3573781 12.746094 5.0175781 C 13.376954 5.6777781 14.028933 6.6016019 14.720703 7.5449219 C 14.921682 7.8189854 15.137821 8.0875028 15.347656 8.359375 C 15.186983 8.4546776 15.048102 8.5845105 14.9375 8.7265625 C 14.7088 9.0202825 14.534664 9.3843106 14.371094 9.8066406 C 14.290876 10.013763 14.223626 10.268151 14.150391 10.5 L 11.566406 10.5 C 11.268023 8.9109552 10.977381 7.319357 10.716797 6.1171875 C 10.583017 5.5000075 10.456928 4.9848225 10.335938 4.6015625 C 10.291862 4.4619719 10.245706 4.3546002 10.197266 4.2441406 C 10.474105 4.0866779 10.740989 4 11 4 z M 9.4277344 5.0859375 C 9.5212344 5.4062975 9.6241614 5.8035981 9.7382812 6.3300781 C 9.9821215 7.4550205 10.263302 8.9781796 10.548828 10.5 L 8.2167969 10.5 C 8.324795 9.994712 8.4268139 9.4750758 8.5234375 8.953125 C 8.7413375 7.776095 8.9463581 6.61301 9.1738281 5.78125 C 9.2583281 5.47218 9.3436544 5.2772475 9.4277344 5.0859375 z M 7.9589844 6.6210938 C 7.8162746 7.3021789 7.6794214 8.0238347 7.5410156 8.7714844 C 7.4316022 9.3625208 7.317169 9.950634 7.1953125 10.5 L 5.6035156 10.5 C 5.5951976 10.479703 5.5886151 10.455424 5.5800781 10.435547 C 5.5008781 10.251117 5.4160231 10.084467 5.2832031 9.9296875 C 6.0138741 9.2243153 6.6644107 8.3807461 7.2773438 7.5449219 C 7.510607 7.2268366 7.7340538 6.9253851 7.9589844 6.6210938 z M 15.857422 9.2128906 C 15.905922 9.2503906 15.967414 9.3015925 16.052734 9.3828125 C 16.255344 9.5757625 16.525671 9.8611269 16.832031 10.160156 C 16.947289 10.272656 17.07423 10.386712 17.199219 10.5 L 15.197266 10.5 C 15.233004 10.396251 15.266171 10.262376 15.302734 10.167969 C 15.446724 9.7961882 15.600463 9.5018036 15.726562 9.3398438 C 15.831233 9.2054034 15.851312 9.2150106 15.857422 9.2128906 z M 4.6191406 11.5 L 4.8691406 11.5 C 4.8956423 11.594647 4.9230709 11.658729 4.9492188 11.755859 C 4.8430336 11.663815 4.7302859 11.583319 4.6191406 11.5 z M 5.9199219 11.5 L 6.9316406 11.5 C 6.8901086 11.646461 6.854297 11.826772 6.8105469 11.958984 C 6.6699969 12.383734 6.5143037 12.727197 6.3710938 12.935547 C 6.3462937 12.971547 6.3440656 12.951816 6.3222656 12.978516 C 6.3107656 12.944116 6.3026156 12.930578 6.2910156 12.892578 C 6.1926156 12.571878 6.0869962 12.131403 5.9726562 11.689453 C 5.9560868 11.625408 5.9368225 11.563864 5.9199219 11.5 z M 7.9648438 11.5 L 10.742188 11.5 C 11.006257 12.89112 11.27236 14.255152 11.529297 15.320312 C 11.679567 15.943233 11.825329 16.465868 11.974609 16.861328 C 12.049209 17.059058 12.121623 17.22452 12.220703 17.375 C 12.232182 17.39243 12.25457 17.412743 12.267578 17.431641 C 11.820801 17.801957 11.4014 18 11 18 C 10.45833 18 9.8828131 17.642622 9.2519531 16.982422 C 8.6210931 16.322222 7.9691135 15.398398 7.2773438 14.455078 C 7.1376299 14.264558 6.9855184 14.078984 6.8417969 13.888672 C 6.9761726 13.776311 7.0962613 13.646065 7.1953125 13.501953 C 7.4282325 13.163083 7.6025856 12.746494 7.7597656 12.271484 C 7.8368015 12.038681 7.8967477 11.758027 7.9648438 11.5 z M 11.759766 11.5 L 13.855469 11.5 C 13.74579 11.92816 13.639218 12.364309 13.541016 12.808594 C 13.302716 13.886714 13.092151 14.962866 12.900391 15.753906 C 12.862891 15.908386 12.832795 15.983341 12.796875 16.113281 C 12.702275 15.814541 12.607063 15.521678 12.501953 15.085938 C 12.26462 14.102075 12.011435 12.818979 11.759766 11.5 z M 14.884766 11.5 L 17.373047 11.5 C 17.244756 11.594591 17.116939 11.690246 16.996094 11.796875 C 16.145724 12.547205 15.412473 13.511748 14.720703 14.455078 C 14.471078 14.795475 14.232328 15.119511 13.992188 15.443359 C 14.159141 14.7005 14.326118 13.891603 14.517578 13.025391 C 14.633114 12.502699 14.755988 11.982492 14.884766 11.5 z "
     class="ColorScheme-Text"
     />
</svg>

<svg viewBox="0 0 22 22" xmlns="http://www.w3.org/2000/svg">
<defs>
<style id="current-color-scheme" type="text/css">.ColorScheme-Text {
        color:#4d4d4d;
      }</style>
</defs>
<path class="ColorScheme-Text" d="m3 2v18h1v-7.709c0.11298 0.084944 0.22783 0.15702 0.33984 0.25586 0.74338 0.65593 1.4476 1.5664 2.1309 2.498 0.68323 0.93168 1.3438 1.8829 2.0566 2.6289 0.71289 0.74605 1.5143 1.3262 2.4727 1.3262 0.95833 0 1.7578-0.58012 2.4707-1.3262s1.3734-1.6972 2.0566-2.6289c0.68323-0.93167 1.3875-1.8421 2.1309-2.498 0.74338-0.65592 1.498-1.0469 2.3418-1.0469v-1c-0.84375 0-1.5984-0.39096-2.3418-1.0469-0.74339-0.65593-1.4476-1.5664-2.1309-2.498-0.68323-0.93168-1.3438-1.8829-2.0566-2.6289s-1.5124-1.3262-2.4707-1.3262c-0.95834 0-1.7598 0.58012-2.4727 1.3262-0.71289 0.74605-1.3734 1.6972-2.0566 2.6289-0.68323 0.93167-1.3875 1.8421-2.1309 2.498-0.11253 0.099288-0.22645 0.17257-0.33984 0.25781v-7.7109h-1zm8 2c0.54166 0 1.1152 0.35738 1.7461 1.0176s1.2828 1.584 1.9746 2.5273c0.20098 0.27406 0.41712 0.54258 0.62695 0.81445-0.16067 0.095303-0.29955 0.22514-0.41016 0.36719-0.2287 0.29372-0.40284 0.65775-0.56641 1.0801-0.080218 0.20712-0.14747 0.46151-0.2207 0.69336h-2.584c-0.29838-1.589-0.58902-3.1806-0.84961-4.3828-0.13378-0.61718-0.25987-1.1324-0.38086-1.5156-0.044076-0.13959-0.090232-0.24696-0.13867-0.35742 0.27684-0.15746 0.54372-0.24414 0.80273-0.24414zm-1.5723 1.0859c0.0935 0.32036 0.19643 0.71766 0.31055 1.2441 0.24384 1.1249 0.52502 2.6481 0.81055 4.1699h-2.332c0.108-0.50529 0.21002-1.0249 0.30664-1.5469 0.2179-1.177 0.42292-2.3401 0.65039-3.1719 0.0845-0.30907 0.16983-0.504 0.25391-0.69531zm-1.4688 1.5352c-0.14271 0.68109-0.27956 1.4027-0.41797 2.1504-0.10941 0.59104-0.22385 1.1791-0.3457 1.7285h-1.5918c-0.008318-0.020297-0.0149-0.044576-0.023438-0.064453-0.0792-0.18443-0.16406-0.35108-0.29688-0.50586 0.73067-0.70537 1.3812-1.5489 1.9941-2.3848 0.23326-0.31809 0.45671-0.61954 0.68164-0.92383zm7.8984 2.5918c0.0485 0.0375 0.10999 0.088702 0.19531 0.16992 0.20261 0.19295 0.47294 0.47831 0.7793 0.77734 0.11526 0.1125 0.2422 0.22656 0.36719 0.33984h-2.002c0.035738-0.10375 0.068905-0.23762 0.10547-0.33203 0.14399-0.37178 0.29773-0.66617 0.42383-0.82813 0.10467-0.13444 0.12475-0.12483 0.13086-0.12695zm-11.238 2.2871h0.25c0.026502 0.094647 0.05393 0.15873 0.080078 0.25586-0.10619-0.092044-0.21893-0.17254-0.33008-0.25586zm1.3008 0h1.0117c-0.041532 0.14646-0.077344 0.32677-0.12109 0.45898-0.14055 0.42475-0.29624 0.76821-0.43945 0.97656-0.0248 0.036-0.027028 0.016269-0.048828 0.042969-0.0115-0.0344-0.01965-0.047938-0.03125-0.085938-0.0984-0.3207-0.20402-0.76118-0.31836-1.2031-0.016569-0.064045-0.035834-0.12559-0.052734-0.18945zm2.0449 0h2.7773c0.26407 1.3911 0.53017 2.7552 0.78711 3.8203 0.15027 0.62292 0.29603 1.1456 0.44531 1.541 0.0746 0.19773 0.14701 0.36319 0.24609 0.51367 0.011479 0.01743 0.033867 0.037743 0.046875 0.056641-0.44678 0.37032-0.86618 0.56836-1.2676 0.56836-0.54167 0-1.1172-0.35738-1.748-1.0176s-1.2828-1.584-1.9746-2.5273c-0.13971-0.19052-0.29183-0.37609-0.43555-0.56641 0.13438-0.11236 0.25446-0.24261 0.35352-0.38672 0.23292-0.33887 0.40727-0.75546 0.56445-1.2305 0.077036-0.2328 0.13698-0.51346 0.20508-0.77148zm3.7949 0h2.0957c-0.10968 0.42816-0.21625 0.86431-0.31445 1.3086-0.2383 1.0781-0.44886 2.1543-0.64062 2.9453-0.0375 0.15448-0.067596 0.22944-0.10352 0.35938-0.0946-0.29874-0.18981-0.5916-0.29492-1.0273-0.23733-0.98386-0.49052-2.267-0.74219-3.5859zm3.125 0h2.4883c-0.12829 0.094591-0.25611 0.19025-0.37695 0.29688-0.85037 0.75033-1.5836 1.7149-2.2754 2.6582-0.24962 0.3404-0.48838 0.66443-0.72852 0.98828 0.16695-0.74286 0.33393-1.5518 0.52539-2.418 0.11554-0.52269 0.23841-1.0429 0.36719-1.5254z" fill="currentColor"/>
</svg>
